openmetadata-ui/src/main/resources/ui/src/assets/svg/ic-sql-builder.svg

<svg width="20" height="20" viewBox="0 0 20 20" fill="none" xmlns="http://www.w3.org/2000/svg">
<path d="M0 2.64319V17.3567H20V2.64319H0ZM18.8281 16.1849H1.17188V7.98174H18.8281V16.1849ZM18.8281 6.80987H1.17188V3.81506H18.8281V6.80987Z" fill="#76746F"/>
<path d="M3.25488 4.72656H2.08301V5.89844H3.25488V4.72656Z" fill="#76746F"/>
<path d="M5.16895 4.72656H3.99707V5.89844H5.16895V4.72656Z" fill="#76746F"/>
<path d="M7.08301 4.72656H5.91113V5.89844H7.08301V4.72656Z" fill="#76746F"/>
<path d="M7.60086 12.385C7.54223 12.2484 7.45832 12.132 7.34914 12.0365C7.23949 11.9406 7.10789 11.8577 6.95344 11.7873C6.79945 11.717 6.62637 11.6526 6.4352 11.594C6.3141 11.5551 6.20586 11.5218 6.11004 11.4943C6.01422 11.4672 5.93316 11.4388 5.86688 11.4095C5.80059 11.3801 5.74957 11.348 5.7143 11.3129C5.67949 11.2777 5.66184 11.2328 5.66184 11.178C5.66184 11.1039 5.69187 11.0512 5.75242 11.02C5.81297 10.9888 5.89402 10.973 5.99559 10.973C6.12051 10.973 6.24875 10.9935 6.37937 11.0345C6.51 11.0755 6.62824 11.1196 6.7341 11.1664C6.85902 11.2212 6.98012 11.2836 7.09691 11.354L7.58941 10.4107C7.49551 10.3637 7.39012 10.3139 7.27285 10.2612C7.15559 10.2085 7.02969 10.1597 6.89477 10.1149C6.76031 10.07 6.62062 10.0329 6.47617 10.0035C6.33172 9.97419 6.18297 9.95966 6.03086 9.95966C5.82395 9.95966 5.6275 9.98993 5.44203 10.0505C5.25656 10.111 5.0916 10.1997 4.94715 10.317C4.8027 10.4341 4.68828 10.5807 4.60434 10.7563C4.52043 10.932 4.47848 11.1351 4.47848 11.3657C4.47848 11.518 4.49898 11.6527 4.54 11.77C4.58102 11.887 4.64441 11.9916 4.73023 12.0832C4.81605 12.1752 4.9257 12.2572 5.05824 12.3295C5.19125 12.4017 5.34906 12.4691 5.53309 12.5314C5.65801 12.5745 5.77578 12.6115 5.8873 12.6427C5.9984 12.6742 6.09707 12.7054 6.18289 12.7366C6.26918 12.7678 6.33641 12.8038 6.38504 12.8448C6.43414 12.8858 6.45848 12.9356 6.45848 12.9943C6.45848 13.0491 6.43418 13.093 6.38504 13.1261C6.33641 13.1593 6.24965 13.1759 6.12473 13.1759C5.9607 13.1759 5.79957 13.1525 5.64129 13.1056C5.48301 13.0586 5.34141 13.0059 5.21648 12.9473C5.0682 12.8811 4.92566 12.8048 4.78883 12.719L4.29688 13.7207C4.4218 13.7951 4.55766 13.8614 4.70402 13.92C4.85039 13.9786 5.0025 14.0294 5.16078 14.0724C5.31906 14.1152 5.47832 14.1484 5.63852 14.172C5.79871 14.1954 5.95461 14.207 6.10719 14.207C6.29836 14.207 6.48859 14.1846 6.67836 14.1398C6.86766 14.0947 7.03738 14.0216 7.18801 13.92C7.3382 13.8184 7.4593 13.6828 7.55129 13.5129C7.64281 13.3429 7.68859 13.1331 7.68859 12.8831C7.68859 12.6878 7.65949 12.5218 7.60086 12.385Z" fill="#76746F"/>
<path d="M11.661 13.4689C11.8288 13.2813 11.959 13.0696 12.0505 12.8331C12.1425 12.5969 12.1883 12.3499 12.1883 12.092C12.1883 11.8264 12.1387 11.5668 12.0391 11.313C11.9394 11.0591 11.7978 10.8324 11.6143 10.6333C11.4307 10.434 11.21 10.2729 10.952 10.1499C10.6946 10.0269 10.4071 9.96535 10.091 9.96535C9.78251 9.96535 9.49837 10.023 9.23853 10.1382C8.97868 10.2535 8.75411 10.4087 8.56485 10.604C8.37509 10.7992 8.22778 11.0238 8.12239 11.2777C8.01704 11.5315 7.96411 11.7952 7.96411 12.0686C7.96411 12.338 8.01513 12.5998 8.11669 12.8536C8.21825 13.1075 8.36079 13.3332 8.54435 13.5304C8.7279 13.7275 8.94864 13.8858 9.2061 14.0048C9.46403 14.124 9.75106 14.1836 10.0676 14.1836C10.2469 14.1836 10.4181 14.1641 10.5802 14.125C10.7423 14.0861 10.8953 14.0294 11.0402 13.955L11.2276 14.1543H12.2937L11.661 13.4689ZM10.9992 12.3673C10.9792 12.4651 10.9482 12.5587 10.9053 12.6486L10.677 12.3967H9.61044L10.296 13.1466C10.2374 13.1624 10.1649 13.17 10.0791 13.17C9.91509 13.17 9.77349 13.14 9.65431 13.0792C9.53513 13.0186 9.43689 12.9378 9.35872 12.836C9.28052 12.7347 9.22188 12.6184 9.18278 12.4875C9.14368 12.3566 9.12415 12.221 9.12415 12.0803C9.12415 11.9438 9.14274 11.81 9.17993 11.6791C9.21712 11.5482 9.27481 11.431 9.35302 11.3275C9.43071 11.2241 9.52942 11.1402 9.6486 11.0755C9.76778 11.0112 9.90939 10.979 10.0734 10.979C10.2336 10.979 10.3733 11.0093 10.4925 11.0698C10.6112 11.1304 10.7108 11.2114 10.7909 11.313C10.8711 11.4146 10.9306 11.5306 10.9697 11.6615C11.0088 11.7924 11.0284 11.928 11.0284 12.0687C11.0283 12.1702 11.0183 12.2699 10.9992 12.3673Z" fill="#76746F"/>
<path d="M13.8171 13.1584V9.99472H12.6748V14.1543H15.7032V13.1584H13.8171Z" fill="#76746F"/>
</svg>

<svg xmlns="http://www.w3.org/2000/svg" width="20" height="20" fill="none"><path fill="#76746F" d="M0 2.643v14.714h20V2.643H0Zm18.828 13.542H1.172V7.982h17.656v8.203Zm0-9.375H1.172V3.815h17.656V6.81Z"/><path fill="#76746F" d="M3.255 4.727H2.083v1.171h1.172V4.727ZM5.169 4.727H3.997v1.171H5.17V4.727ZM7.083 4.727H5.911v1.171h1.172V4.727ZM7.6 12.385a.96.96 0 0 0-.25-.348 1.61 1.61 0 0 0-.397-.25 4.254 4.254 0 0 0-.518-.193c-.12-.039-.23-.072-.325-.1a1.863 1.863 0 0 1-.243-.085.507.507 0 0 1-.153-.096.184.184 0 0 1-.052-.135c0-.074.03-.127.09-.158a.534.534 0 0 1 .244-.047c.125 0 .253.02.383.061a3.39 3.39 0 0 1 .718.32l.492-.943a8.445 8.445 0 0 0-.316-.15 3.987 3.987 0 0 0-.797-.257 2.236 2.236 0 0 0-.445-.044c-.207 0-.403.03-.589.09-.185.061-.35.15-.495.267a1.252 1.252 0 0 0-.343.44 1.399 1.399 0 0 0-.126.609c0 .152.021.287.062.404a.88.88 0 0 0 .19.313c.086.092.196.174.328.246.133.073.291.14.475.202.125.043.243.08.354.112.111.031.21.062.296.094a.663.663 0 0 1 .202.108c.05.04.073.09.073.15a.152.152 0 0 1-.073.131c-.049.033-.135.05-.26.05-.164 0-.325-.024-.484-.07a3.458 3.458 0 0 1-.852-.387l-.492 1.002c.125.074.26.14.407.199a4.165 4.165 0 0 0 .935.252c.16.023.316.035.468.035.191 0 .382-.022.571-.067a1.54 1.54 0 0 0 .51-.22c.15-.102.271-.237.363-.407.092-.17.138-.38.138-.63 0-.195-.03-.361-.088-.498ZM11.661 13.469a2.062 2.062 0 0 0 .527-1.377 2.158 2.158 0 0 0-.574-1.459c-.183-.199-.404-.36-.662-.483a1.973 1.973 0 0 0-.861-.185 2.08 2.08 0 0 0-.852.173 2.13 2.13 0 0 0-1.117 1.14 2.044 2.044 0 0 0-.158.79 2.164 2.164 0 0 0 .58 1.462 2.029 2.029 0 0 0 1.523.653 2.05 2.05 0 0 0 .973-.229l.188.2h1.066l-.633-.685Zm-.662-1.102c-.02.098-.05.192-.094.282l-.228-.252H9.61l.686.75a.849.849 0 0 1-.217.023.855.855 0 0 1-.72-.334 1.062 1.062 0 0 1-.176-.348 1.461 1.461 0 0 1-.003-.808c.037-.132.095-.249.173-.352a.903.903 0 0 1 .296-.252.882.882 0 0 1 .424-.097c.16 0 .3.03.42.09a.89.89 0 0 1 .298.244c.08.102.14.218.179.348.039.131.058.267.058.408 0 .101-.01.2-.029.298ZM13.817 13.158V9.995h-1.142v4.16h3.028v-.997h-1.886Z"/></svg>
